src/next/res/folderop.svg

<svg height="16" viewBox="0 0 16 16" width="16" xmlns="http://www.w3.org/2000/svg" xmlns:xlink="http://www.w3.org/1999/xlink"><linearGradient id="a" gradientUnits="userSpaceOnUse" x1="8" x2="8" y1="5" y2="15"><stop offset="0" stop-color="#5678c8"/><stop offset=".94117647" stop-color="#3f59ae"/><stop offset="1" stop-color="#3d7cdb"/></linearGradient><linearGradient id="b" gradientUnits="userSpaceOnUse" x1="5.5" x2="5.5" y1="12" y2="13"><stop offset="0" stop-color="#174072"/><stop offset="1" stop-color="#174072" stop-opacity="0"/></linearGradient><linearGradient id="c" gradientUnits="userSpaceOnUse" x1="9" x2="9" y1="-1" y2="10"><stop offset="0" stop-color="#102134"/><stop offset="1" stop-color="#102134" stop-opacity="0"/></linearGradient><filter id="d" color-interpolation-filters="sRGB" height="1.267833" width="1.129187" x="-.064594" y="-.133917"><feGaussianBlur stdDeviation="3.1247207"/></filter><linearGradient id="e" gradientUnits="userSpaceOnUse" x1=".37741" x2=".37741" y1="5.214652" y2="3.309088"><stop offset="0" stop-color="#34608f"/><stop offset="1" stop-color="#34608f" stop-opacity="0"/></linearGradient><linearGradient id="f" gradientTransform="matrix(.21345221 0 0 .1138394 -11.411169 -103.22724)" gradientUnits="userSpaceOnUse" x1="124.01234" x2="124.01234" y1="966.51019" y2="935.34326"><stop offset="0"/><stop offset="1" stop-color="#34608f" stop-opacity="0"/></linearGradient><linearGradient id="g" gradientUnits="userSpaceOnUse" x1="55" x2="55" y1="1036.4132" y2="1032.4822"><stop offset="0" stop-color="#003d7b"/><stop offset="1" stop-color="#003d7b" stop-opacity="0"/></linearGradient><filter id="h" color-interpolation-filters="sRGB" height="1.697208" width="1.027888" x="-.013944" y="-.348604"><feGaussianBlur stdDeviation=".70882694"/></filter><filter id="i" color-interpolation-filters="sRGB" height="1.869989" width="1.027669" x="-.013834" y="-.434994"><feGaussianBlur stdDeviation=".70324038"/></filter><clipPath id="j"><rect height="28.072842" rx="4" width="101.14289" x="4" y="941.36218"/></clipPath><path d="m-46.991242 21.13992h114.000023c2.216 0 4 .8652 4 1.94 0 1.0747-1.78433 1.902-4 1.94-36.945183.6329-74.7030655.7782-114.000023 0-2.215566-.044-4-.8653-4-1.94 0-1.0748 1.784-1.94 4-1.94z" filter="url(#i)" opacity=".554286" transform="matrix(.125 0 0 .125 6.748904 12.35751)"/><rect fill="url(#g)" filter="url(#h)" height="4.39199" opacity=".577143" rx="2.439995" ry="2.195995" transform="matrix(.125 0 0 .25614775 -.125 -251.09298)" width="121.99997" x="3.000028" y="1032.4822"/><path d="m.5 1c-.5 0-.5.3826937-.5.5v1.5 5c0 .554.446 1 1 1h13c.554 0 1-.446 1-1v-5c0-.554-.446-1-1-1h-8.0957031c-.0842007-.4859507-.178001-1-.4042969-1z" fill="#3b6ca9"/><path d="m1 2h3v.9999999h-3z" fill="#fcf9e9"/><path d="m.5 1c-.5 0-.5.3826937-.5.5v1.5 5c0 .554.446 1 1 1v-6-1h3.8828125c.013345.068527.023996.094239.037109.1699219.0826732.4792195.4980774.8295107.9843754.8300781h1.0957031 7v6c.554 0 1-.446 1-1v-5c0-.554-.446-1-1-1h-8.0957031c-.0842007-.4859507-.178001-1-.4042969-1z" fill="url(#c)" opacity=".25"/><path d="m3 2h1v.9999999h-1z" fill="#fbc66d"/><path clip-path="url(#j)" d="m25.67146 956.10785-21.6714601-.15854.0000002 57.33469 107.8857499-.02v-60.57188c0-2.54081-2.05959-4.58387-4.62097-4.58387h-69.59332c-9.375263 0-5.067235 7.84799-12 8z" fill="#16375b" fill-opacity=".801471" filter="url(#d)" transform="matrix(.14830504 0 0 .14830504 -.59322 -134.2721)"/><path d="m1 8h2.5l1-1h10.5c.554 0 1 .446 1 1v6c0 .554-.446 1-1 1h-14c-.554 0-1-.446-1-1v-5c0-.554.56739868-1.3460811 1-1z" fill="url(#a)"/><path d="m4.5 7-1 1h-2.5c-.554 0-1 .446-1 1v1c0-.554.5673987-1.346081 1-1h2.5l1-1h10.5c.554 0 1 .446 1 1v-1c0-.554-.446-1-1-1z" fill="#a4c0e8"/><path d="m0 12h16v1h-16z" fill="#385da4"/><path d="m0 12h7 9v1h-16z" fill="url(#b)"/><path d="m0 13h16v.5h-16z" fill="#a4c0e8"/><path d="m1 8c-.5505375 0-.9925198.4410516-.9980469.9902344v5.0195316c.00023.02285.0119482.042.0136719.06445.038109.321065.7510484.923754.984375.925784.0003916.000003.00156 0 .00195 0v-7z" fill="url(#e)" opacity=".594286"/><path d="m15 7v8c.554 0 1-.446 1-1v-6c0-.554-.446-1-1-1z" fill="url(#f)" opacity=".405714"/></svg>

<?xml version="1.0" encoding="UTF-8" standalone="no"?>
<!-- Created with Inkscape (http://www.inkscape.org/) -->

<svg
   xmlns:dc="http://purl.org/dc/elements/1.1/"
   xmlns:cc="http://creativecommons.org/ns#"
   xmlns:rdf="http://www.w3.org/1999/02/22-rdf-syntax-ns#"
   xmlns:svg="http://www.w3.org/2000/svg"
   xmlns="http://www.w3.org/2000/svg"
   xmlns:xlink="http://www.w3.org/1999/xlink"
   xmlns:sodipodi="http://sodipodi.sourceforge.net/DTD/sodipodi-0.dtd"
   xmlns:inkscape="http://www.inkscape.org/namespaces/inkscape"
   version="1.1"
   id="svg2"
   width="16"
   height="16"
   viewBox="0 0 16 16"
   sodipodi:docname="folderop.svg"
   inkscape:version="0.92.4 (unknown)"
   inkscape:export-filename="/home/rizmut/Dokumen/Rizmut/Github/libreoffice-style-karasa-jaga/build/next/res/folderop.png"
   inkscape:export-xdpi="96"
   inkscape:export-ydpi="96">
  <metadata
     id="metadata8">
    <rdf:RDF>
      <cc:Work
         rdf:about="">
        <dc:format>image/svg+xml</dc:format>
        <dc:type
           rdf:resource="http://purl.org/dc/dcmitype/StillImage" />
        <dc:title></dc:title>
      </cc:Work>
    </rdf:RDF>
  </metadata>
  <defs
     id="defs6">
    <linearGradient
       inkscape:collect="always"
       id="linearGradient854">
      <stop
         style="stop-color:#174072;stop-opacity:1;"
         offset="0"
         id="stop850" />
      <stop
         style="stop-color:#174072;stop-opacity:0;"
         offset="1"
         id="stop852" />
    </linearGradient>
    <linearGradient
       inkscape:collect="always"
       xlink:href="#linearGradient838-6"
       id="linearGradient840"
       x1="9"
       y1="5"
       x2="9"
       y2="15"
       gradientUnits="userSpaceOnUse"
       gradientTransform="translate(-1)" />
    <linearGradient
       inkscape:collect="always"
       xlink:href="#linearGradient854"
       id="linearGradient856"
       x1="6.5"
       y1="12"
       x2="6.5"
       y2="13"
       gradientUnits="userSpaceOnUse"
       gradientTransform="translate(-1)" />
    <linearGradient
       inkscape:collect="always"
       id="linearGradient4716">
      <stop
         style="stop-color:#102134;stop-opacity:1;"
         offset="0"
         id="stop4718" />
      <stop
         style="stop-color:#102134;stop-opacity:0;"
         offset="1"
         id="stop4720" />
    </linearGradient>
    <linearGradient
       inkscape:collect="always"
       xlink:href="#linearGradient4716"
       id="linearGradient906"
       x1="10"
       y1="-1"
       x2="10"
       y2="10"
       gradientUnits="userSpaceOnUse"
       gradientTransform="translate(-1)" />
    <filter
       style="color-interpolation-filters:sRGB"
       inkscape:collect="always"
       id="filter4747"
       x="-0.06459371"
       width="1.1291873"
       y="-0.1339166"
       height="1.2678332">
      <feGaussianBlur
         inkscape:collect="always"
         stdDeviation="3.1247207"
         id="feGaussianBlur4749" />
    </filter>
    <linearGradient
       inkscape:collect="always"
       xlink:href="#linearGradient4608"
       id="linearGradient4614"
       x1="3"
       y1="968.26129"
       x2="3"
       y2="953.01678"
       gradientUnits="userSpaceOnUse"
       gradientTransform="matrix(0.12499998,0,0,0.12499998,0.0024099,-115.81799)" />
    <linearGradient
       inkscape:collect="always"
       id="linearGradient4608">
      <stop
         style="stop-color:#34608f;stop-opacity:1;"
         offset="0"
         id="stop4610" />
      <stop
         style="stop-color:#34608f;stop-opacity:0;"
         offset="1"
         id="stop4612" />
    </linearGradient>
    <linearGradient
       inkscape:collect="always"
       xlink:href="#linearGradient4616"
       id="linearGradient4622"
       x1="124.01234"
       y1="966.51019"
       x2="124.01234"
       y2="935.34326"
       gradientUnits="userSpaceOnUse"
       gradientTransform="matrix(0.21345221,0,0,0.1138394,-11.411169,-103.22724)" />
    <linearGradient
       id="linearGradient4616">
      <stop
         style="stop-color:#000000;stop-opacity:1;"
         offset="0"
         id="stop4618" />
      <stop
         style="stop-color:#34608f;stop-opacity:0;"
         offset="1"
         id="stop4620" />
    </linearGradient>
    <linearGradient
       inkscape:collect="always"
       xlink:href="#linearGradient4624"
       id="linearGradient4630"
       x1="55"
       y1="1036.4132"
       x2="55"
       y2="1032.4822"
       gradientUnits="userSpaceOnUse" />
    <linearGradient
       inkscape:collect="always"
       id="linearGradient4624">
      <stop
         style="stop-color:#003d7b;stop-opacity:1;"
         offset="0"
         id="stop4626" />
      <stop
         style="stop-color:#003d7b;stop-opacity:0;"
         offset="1"
         id="stop4628" />
    </linearGradient>
    <filter
       style="color-interpolation-filters:sRGB"
       inkscape:collect="always"
       id="filter4584"
       x="-0.013944133"
       width="1.0278883"
       y="-0.34860396"
       height="1.6972079">
      <feGaussianBlur
         inkscape:collect="always"
         stdDeviation="0.70882694"
         id="feGaussianBlur4586" />
    </filter>
    <filter
       style="color-interpolation-filters:sRGB"
       inkscape:collect="always"
       id="filter4724"
       x="-0.013834233"
       width="1.0276685"
       y="-0.43499437"
       height="1.8699887">
      <feGaussianBlur
         inkscape:collect="always"
         stdDeviation="0.70324038"
         id="feGaussianBlur4726" />
    </filter>
    <linearGradient
       inkscape:collect="always"
       id="linearGradient838-6">
      <stop
         style="stop-color:#5678c8;stop-opacity:1"
         offset="0"
         id="stop834-7" />
      <stop
         id="stop985-5"
         offset="0.94117647"
         style="stop-color:#3f59ae;stop-opacity:1" />
      <stop
         style="stop-color:#3d7cdb;stop-opacity:1"
         offset="1"
         id="stop836-3" />
    </linearGradient>
    <clipPath
       clipPathUnits="userSpaceOnUse"
       id="clipPath920">
      <rect
         style="opacity:0.6457142;fill:#155293;fill-opacity:1;stroke:none;stroke-width:1"
         id="rect922"
         width="101.14289"
         height="28.072842"
         x="4"
         y="941.36218"
         rx="4"
         ry="4" />
    </clipPath>
    <clipPath
       clipPathUnits="userSpaceOnUse"
       id="clipPath20584">
      <rect
         style="opacity:0.43850265;fill:#006c8a;fill-opacity:1;stroke:none"
         id="rect20586"
         width="120"
         height="102.29915"
         x="5.9362898"
         y="48"
         ry="1.4336557" />
    </clipPath>
    <linearGradient
       id="linearGradient4518-3">
      <stop
         id="stop4520-1"
         offset="0"
         style="stop-color:#eeecec;stop-opacity:1" />
      <stop
         style="stop-color:#f4f4f4;stop-opacity:1"
         offset="0.40000001"
         id="stop5969-4" />
      <stop
         id="stop4522-9"
         offset="1"
         style="stop-color:#f6f5f5;stop-opacity:1" />
    </linearGradient>
    <clipPath
       id="clipPath6093-7"
       clipPathUnits="userSpaceOnUse">
      <path
         style="fill:#ffffff;fill-opacity:1"
         d="m 17.000001,8 0.782827,110 h 57.5 c 1.675283,0 3.119418,0.18058 4.9,-1.6 8.797935,-8.79794 21.481402,-23.383226 28.739972,-30.707378 2.44056,-2.462612 2.80096,-4.47117 2.80096,-6.724043 L 110,8 Z"
         id="path6095-4"
         sodipodi:nodetypes="cccssccc"
         inkscape:connector-curvature="0" />
    </clipPath>
    <clipPath
       id="clipPath7526"
       clipPathUnits="userSpaceOnUse">
      <path
         style="fill:#ffffff;fill-opacity:1"
         d="m 17.000001,8 0.782827,110 h 57.5 c 1.675283,0 3.119418,0.18058 4.9,-1.6 8.797935,-8.79794 21.481402,-23.383226 28.739972,-30.707378 2.44056,-2.462612 2.80096,-4.47117 2.80096,-6.724043 L 110,8 Z"
         id="path7524"
         sodipodi:nodetypes="cccssccc"
         inkscape:connector-curvature="0" />
    </clipPath>
    <linearGradient
       id="linearGradient3897-7">
      <stop
         id="stop3899-4"
         offset="0"
         style="stop-color:#fcfcfc;stop-opacity:1" />
      <stop
         style="stop-color:#f8f8f8;stop-opacity:1"
         offset="0.52275378"
         id="stop3901-5" />
      <stop
         id="stop3903-2"
         offset="0.72337759"
         style="stop-color:#f0efef;stop-opacity:1;" />
      <stop
         id="stop3905-5"
         offset="0.89024991"
         style="stop-color:#e3e1e1;stop-opacity:1;" />
      <stop
         id="stop3907-4"
         offset="1"
         style="stop-color:#cecbcb;stop-opacity:1" />
    </linearGradient>
    <clipPath
       id="clipPath3889-6"
       clipPathUnits="userSpaceOnUse">
      <path
         style="fill:url(#linearGradient3893);fill-opacity:1;stroke:none"
         d="m 112,82.502986 c 0,4.465301 -2.79749,6.409952 -5.27972,8.093625 -5.10854,3.46508 -14.939114,3.32536 -20.720284,3.40638 -0.081,5.781159 0.16586,15.504599 -3.29922,20.613139 -1.68367,2.48224 -5.29051,5.38687 -8.20078,5.38687 2.31803,0 4.74284,-1.33476 7.58402,-4.08481 9.14197,-8.84873 17.36714,-16.13535 25.673154,-25.297529 C 109.67612,88.503916 112,86.97878 112,82.502986 Z"
         id="path3891-5"
         inkscape:connector-curvature="0"
         sodipodi:nodetypes="cscscssc" />
    </clipPath>
  </defs>
  <sodipodi:namedview
     pagecolor="#ffffff"
     bordercolor="#666666"
     borderopacity="1"
     objecttolerance="10"
     gridtolerance="10"
     guidetolerance="10"
     inkscape:pageopacity="0"
     inkscape:pageshadow="2"
     inkscape:window-width="1366"
     inkscape:window-height="714"
     id="namedview4"
     showgrid="true"
     inkscape:zoom="3.8437501"
     inkscape:cx="-23.120784"
     inkscape:cy="-2.0911334"
     inkscape:window-x="0"
     inkscape:window-y="28"
     inkscape:window-maximized="1"
     inkscape:current-layer="g1029"
     inkscape:snap-page="true"
     inkscape:snap-smooth-nodes="true">
    <inkscape:grid
       type="xygrid"
       id="grid828" />
  </sodipodi:namedview>
  <g
     id="g1029">
    <path
       transform="matrix(0.125,0,0,0.125,6.7489037,12.35751)"
       sodipodi:nodetypes="sssssss"
       inkscape:connector-curvature="0"
       id="rect4554"
       d="M -46.991242,21.13992 H 67.008781 c 2.216,0 4,0.8652 4,1.94 0,1.0747 -1.78433,1.902 -4,1.94 -36.945183,0.6329 -74.7030655,0.7782 -114.000023,0 -2.215566,-0.044 -4,-0.8653 -4,-1.94 0,-1.0748 1.784,-1.94 4,-1.94 z"
       style="display:inline;opacity:0.55428569;fill:#000000;fill-opacity:1;stroke:none;filter:url(#filter4724);enable-background:new" />
    <rect
       transform="matrix(0.125,0,0,0.25614775,-0.125,-251.09298)"
       style="display:inline;opacity:0.57714281;fill:url(#linearGradient4630);fill-opacity:1;stroke:none;filter:url(#filter4584);enable-background:new"
       id="rect4578"
       width="121.99997"
       height="4.3919897"
       x="3.0000281"
       y="1032.4822"
       rx="2.4399951"
       ry="2.1959949" />
    <path
       sodipodi:nodetypes="sscsssssscss"
       inkscape:connector-curvature="0"
       id="rect832"
       d="M 0.5,1 C 0,1 0,1.3826937 0,1.5 V 3 8 c 0,0.554 0.446,1 1,1 h 13 c 0.554,0 1,-0.446 1,-1 V 3 C 15,2.446 14.554,2 14,2 H 5.9042969 C 5.8200962,1.5140493 5.7262959,1 5.5,1 Z"
       style="opacity:1;fill:#3b6ca9;fill-opacity:1;stroke:none;stroke-width:1;stroke-miterlimit:4;stroke-dasharray:none;stroke-opacity:1" />
    <path
       sodipodi:nodetypes="ccccc"
       inkscape:connector-curvature="0"
       id="rect869"
       d="M 1,2 H 4 V 2.9999999 H 1 Z"
       style="opacity:1;fill:#fcf9e9;fill-opacity:1;stroke:none;stroke-width:0.83421183;stroke-miterlimit:4;stroke-dasharray:none;stroke-opacity:1" />
    <path
       sodipodi:nodetypes="sscscccccccccssscss"
       inkscape:connector-curvature="0"
       id="path875"
       d="M 0.5,1 C 0,1 0,1.3826937 0,1.5 V 3 8 C 0,8.554 0.446,9 1,9 V 3 2 h 3.8828125 c 0.013345,0.068527 0.023996,0.094239 0.037109,0.1699219 C 5.0025947,2.6491414 5.4179989,2.9994326 5.9042969,3 H 7 14 v 6 c 0.554,0 1,-0.446 1,-1 V 3 C 15,2.446 14.554,2 14,2 H 5.9042969 C 5.8200962,1.5140493 5.7262959,1 5.5,1 Z"
       style="opacity:0.25;fill:url(#linearGradient906);fill-opacity:1;stroke:none;stroke-width:1;stroke-miterlimit:4;stroke-dasharray:none;stroke-opacity:1" />
    <path
       sodipodi:nodetypes="ccccc"
       inkscape:connector-curvature="0"
       id="rect871"
       d="M 3,2 H 4 V 2.9999999 H 3 Z"
       style="opacity:1;fill:#fbc66d;fill-opacity:1;stroke:none;stroke-width:0.48163241;stroke-miterlimit:4;stroke-dasharray:none;stroke-opacity:1" />
    <path
       mask="none"
       transform="matrix(0.14830504,0,0,0.14830504,-0.59322015,-134.2721)"
       clip-path="url(#clipPath920)"
       sodipodi:nodetypes="ccccssccc"
       inkscape:connector-curvature="0"
       id="path3822"
       d="m 25.67146,956.10785 -21.6714601,-0.15854 2e-7,57.33469 107.8857499,-0.02 v -60.57188 c 0,-2.54081 -2.05959,-4.58387 -4.62097,-4.58387 H 37.67146 c -9.375263,0 -5.067235,7.84799 -12,8 z"
       style="display:inline;fill:#16375b;fill-opacity:0.80147059;fill-rule:nonzero;stroke:none;filter:url(#filter4747);enable-background:new" />
    <path
       sodipodi:nodetypes="sccssssssss"
       inkscape:connector-curvature="0"
       id="rect830"
       d="m 1,8 h 2.5 l 1,-1 H 15 c 0.554,0 1,0.446 1,1 v 6 c 0,0.554 -0.446,1 -1,1 H 1 C 0.446,15 0,14.554 0,14 V 9 C 0,8.446 0.56739868,7.6539189 1,8 Z"
       style="opacity:1;fill:url(#linearGradient840);fill-opacity:1;stroke:none;stroke-width:1;stroke-miterlimit:4;stroke-dasharray:none;stroke-opacity:1" />
    <path
       sodipodi:nodetypes="ccsscsccscssc"
       inkscape:connector-curvature="0"
       id="path860"
       d="m 4.5,7 -1,1 H 1 C 0.446,8 0,8.446 0,9 v 1 C 0,9.446 0.5673987,8.653919 1,9 h 2.5 l 1,-1 H 15 c 0.554,0 1,0.446 1,1 V 8 C 16,7.446 15.554,7 15,7 Z"
       style="opacity:1;fill:#a4c0e8;fill-opacity:1;stroke:none;stroke-width:1;stroke-miterlimit:4;stroke-dasharray:none;stroke-opacity:1" />
    <path
       sodipodi:nodetypes="ccccc"
       inkscape:connector-curvature="0"
       id="rect846"
       d="m 0,12 h 16 v 1 H 0 Z"
       style="opacity:1;fill:#385da4;fill-opacity:1;stroke:none;stroke-width:1;stroke-miterlimit:4;stroke-dasharray:none;stroke-opacity:1" />
    <path
       sodipodi:nodetypes="cccccc"
       inkscape:connector-curvature="0"
       id="rect848"
       d="m 0,12 h 7 9 v 1 H 0 Z"
       style="opacity:1;fill:url(#linearGradient856);fill-opacity:1;stroke:none;stroke-width:1;stroke-miterlimit:4;stroke-dasharray:none;stroke-opacity:1" />
    <path
       sodipodi:nodetypes="ccccc"
       inkscape:connector-curvature="0"
       id="rect858"
       d="m 0,13 h 16 v 0.5 H 0 Z"
       style="opacity:1;fill:#a4c0e8;fill-opacity:1;stroke:none;stroke-width:1;stroke-miterlimit:4;stroke-dasharray:none;stroke-opacity:1" />
    <path
       sodipodi:nodetypes="sccccccs"
       inkscape:connector-curvature="0"
       id="rect4652"
       d="M 1,8 C 0.4494625,8 0.0074802,8.4410516 0.0019531,8.9902344 v 5.0195316 c 2.3e-4,0.02285 0.0119482,0.042 0.0136719,0.06445 C 0.053734,14.395281 0.7666734,14.99797 1,15 c 3.916e-4,3e-6 0.00156,0 0.00195,0 V 8 Z"
       style="display:inline;opacity:0.59428573;fill:url(#linearGradient4614);fill-opacity:1;stroke:none;stroke-width:0.12499997;enable-background:new" />
    <path
       id="rect4654"
       d="m 15,7 v 8 c 0.554,0 1,-0.446 1,-1 V 8 C 16,7.446 15.554,7 15,7 Z"
       style="display:inline;opacity:0.40571433;fill:url(#linearGradient4622);fill-opacity:1;stroke:none;stroke-width:0.1138394;enable-background:new"
       inkscape:connector-curvature="0"
       sodipodi:nodetypes="ccssc" />
  </g>
</svg>
